X:24
T:O Holy Spirit, Enter In
%%stretchlast false
M:4/4
L:1/4
K:C clef=C1
"^i"[CG]2 "^I"[B,Ecd]2 | "^i"[CDGg]2 "^vi"[A,EAe]2 | "^I"[B,Ecd]2 [CGeg] "^v"[DGdg] | "^V"[G,GBa] [G,^FBa] "^i"[CGcg] [A,Gcg] | "^v"[G,d] "^I"[CEeg] "^iii"[G,Eda] "^V²"[DGdb] | "^i"[D,Gcc'] "^V"[G,GBb] [G,GBa] "^♭v°²"[C^Fca] | "^iv"[F,Gcg]2 "^I¹"[E,c] [E,Ecg] | "^IV"[F,FAa] "^IV²"[C,FGa] "^v"[G,Gg]2 | "^iv"[C,CGf] "^I"[C,CGe] [C,CGd] "^V"[C,B,Gd] | "^I"[CEGc]2 [B,Ecd]2 | "^i"[CG]2 "^vi"[A,EAc]2 | "^V¹"[B,Ddg]2 "^I"[CEe] "^iii"[DEde] | "^Imaj7²"[G,EBc]2 "^i"[CGcg] [A,Gcg] | [G,Gda] "^vi¹"[C^Fea] "^v"[G,Gdg] [DGdg] | "^ii7"[D,c] "^iii¹"[G,EBg] [G,EBa] "^i7"[CGcb] | [F,Gcc'] "^V"[F,Gcb] "^vi7²"[E,Gca] "^vi²"[E,^Fca] | "^IV"[F,GAg] "^i"[C,Gg] "^v"[G,G] "^iii¹"[G,EGg] | "^IV²"[C,FGa]2 "^i"[C,Gg]2 | "^I"[CEBf] "^I7"[CEBe] "^ii"[Ccd] [B,Ccd] | "^I7¹"[EBc]2 "^I"[CEc]2 | "^i"[CGg] [C,Gcg] "^I²"[G,Gce] "^iii¹"[G,GBe] | "^i"[CGg] [C,Gcg] "^I²"[G,Gce] "^iii¹"[G,GBe] | "^I"[C,CGe] "^I¹"[E,Gce] "^V"[G,GBd] "^ii"[C,Dcd] | "^vi"[A,Ce] "^vi7"[A,Ge] "^i"[CGcd] "^ii"[CDcd] | "^iv7"[F,Cce] "^I"[F,Gce] "^I¹"[E,Gcd] [E,Ec] | "^IV"[F,Ac'] [C,GAc'] "^iii¹"[G,EGg]2 | "^IVmaj7²"[C,EFa]2 "^I"[C,EGg]2 | "^iv"[Cf] "^I"[Ce] "^ii"[Cd] "^vii"[B,d] | "^i"[Cc]4 |]
